X:1
T:Harsog a trombita büszke szava
C:Hungarian folk song
Z:Public Domain
L:1/8
M:2/4
K:C
V:1 treble nm="Voice"
%%MIDI program 52
V:1
 C2 B,A, | C2 B,A, | E2 DE | B,2 z2 | F2 ED | F2 ED | A2 ^GA | E2 z2 | E2 AB | c2 BA | A2 DF | %11
w: Har- sok a|trom- bi- ta|büsz- ke- sza-|va,|In- dul a|cser- ké- szek|jó csa- pa-|ta,|Ma- gya- rok|Asz- szo- nya|ké- pe- a-|
 E2 z2 | A2 DF | E2 B,C | D2 CB, | A,2 z2 |] %16
w: latt|Egy Is- ten,|egy ha- za,|egy a- ka-|rat.|

